dataset/zaproxy/icon.svg

<?xml version="1.0" encoding="UTF-8" standalone="no"?>
<svg
   height="128px"
   viewBox="0 0 128 128"
   width="128px"
   version="1.1"
   id="svg8"
   xml:space="preserve"
   xmlns:xlink="http://www.w3.org/1999/xlink"
   xmlns="http://www.w3.org/2000/svg"
   xmlns:svg="http://www.w3.org/2000/svg"><defs
     id="defs12"><linearGradient
       id="linearGradient4"
       gradientUnits="userSpaceOnUse"
       x1="0"
       y1="269.46301"
       x2="118.926"
       y2="269.46301"
       gradientTransform="matrix(1,0,0,0.98333333,-118,-175.03333)"><stop
         offset="0"
         stop-color="#e5a50a"
         id="stop1"
         style="stop-color:#082e4f;stop-opacity:1;" /><stop
         offset="0.414"
         stop-color="#fbdf9b"
         id="stop2"
         style="stop-color:#167fda;stop-opacity:1;" /><stop
         offset="0.81300002"
         stop-color="#e5a50a"
         id="stop3"
         style="stop-color:#072e4f;stop-opacity:1;" /><stop
         offset="1"
         stop-color="#f8ca5b"
         id="stop4"
         style="stop-color:#0c75ca;stop-opacity:1;" /></linearGradient><radialGradient
       xlink:href="#linearGradient8"
       id="radialGradient9"
       cx="67.5"
       cy="63.5"
       fx="67.5"
       fy="63.5"
       r="48.5"
       gradientUnits="userSpaceOnUse"
       gradientTransform="matrix(1.1349075,0,0,1.1349075,-10.538,-6.1096397)" /><linearGradient
       id="linearGradient8"><stop
         style="stop-color:#4482ca;stop-opacity:1;"
         offset="0"
         id="stop8" /><stop
         style="stop-color:#005fa8;stop-opacity:0.98431373;"
         offset="1"
         id="stop9" /></linearGradient><linearGradient
       xlink:href="#linearGradient4"
       id="linearGradient11"
       x1="19"
       y1="67.5"
       x2="116"
       y2="67.5"
       gradientUnits="userSpaceOnUse"
       gradientTransform="matrix(1.1349075,0,0,1.1349075,-10.538,-6.6492665)" /></defs><circle
     style="fill:url(#linearGradient11);stroke-width:12.8688;stroke-linecap:round;stroke-linejoin:round"
     id="path1"
     cx="66.068275"
     cy="69.956985"
     r="55.043015" /><path
     style="fill:#000000;fill-opacity:1;stroke-width:12.8189;stroke-linecap:round;stroke-linejoin:round"
     d="m 108.58492,120.61071 -10.27614,-6.05552 0.47299,-4.33128 -55.87812,-28.317883 c -0.85307,-0.500769 -2.26102,-2.085655 0,-3.391539 L 49.7367,75.085974 25.99592,58.128278 c -1.79179,-1.355343 -2.00301,-2.560798 0,-3.391539 L 31.64849,52.475713 7.90772,35.518017 C 7.28075,35.04408 6.87734,34.298377 6.88896,33.519954 c 0.004,-0.284642 -2.4e-4,-4.517771 -2.4e-4,-4.517771 0,0 1.08875,2.421156 2.14951,1.993782 L 50.86721,12.907756 c 1.13052,-0.469791 3.39154,-1.681962 4.52205,0 l 23.74078,33.915391 c 1.53177,2.261026 0.67435,3.070231 0,3.39154 l -5.65256,2.261026 16.9577,22.610261 c 1.21295,1.727942 1.34265,3.018044 0,3.39154 l -7.96357,2.298 30.44,31.622396 c 0,0 0.0256,6.30603 1e-5,7.07391 -0.0472,1.41365 -1.32604,2.50067 -4.3267,1.13889 z"
     id="path3" /><circle
     style="fill:url(#radialGradient9);fill-opacity:1;stroke-width:12.8688;stroke-linecap:round;stroke-linejoin:round"
     id="circle1"
     cx="66.068275"
     cy="65.956985"
     r="55.043015" /><path
     style="fill:#000000;fill-opacity:1;stroke-width:12.8189;stroke-linecap:round;stroke-linejoin:round"
     d="M 108.63489,116.05169 42.95362,77.347 c -0.52395,-0.307562 -1.25719,-1.024074 -1.22116,-1.833727 0.0226,-0.508612 -0.001,-4.479063 -0.001,-4.479063 L 49.73691,70.563922 25.99613,53.606226 C 25.05131,52.891545 24.54596,52.21854 24.57301,51.620176 24.59721,51.083784 24.57264,47.1073 24.57264,47.1073 L 31.64871,47.953661 7.90794,30.995965 C 7.27262,30.515696 6.86685,29.756343 6.88991,28.966676 6.90211,28.545892 6.88891,24.48013 6.88891,24.48013 L 10.28045,22.219104 50.8674,8.3857025 c 1.13052,-0.4697903 3.39154,-1.6819615 4.52205,0 L 79.9862,39.943838 c 0,0 -8.2e-4,3.969274 5.3e-4,4.47485 0.002,0.725706 -0.45905,1.08457 -0.8565,1.273946 l -5.65256,2.261027 17.91658,20.351315 c 0,0 -0.0142,3.883146 -3.6e-4,4.46928 0.0138,0.581707 -0.28976,0.995166 -0.95852,1.181205 l -7.9136,2.261027 29.50485,33.052122 0.93232,1.13916 c 0,0 0.008,4.14157 2.6e-4,4.50972 -0.0279,1.28039 0.0614,3.8089 -4.32412,1.1342 z"
     id="path5" /><path
     style="fill:#ffffff;fill-opacity:1;stroke-width:12.8189;stroke-linecap:round;stroke-linejoin:round"
     d="M 108.63489,111.52963 42.95362,72.824948 c -0.85307,-0.500769 -2.26102,-2.085655 0,-3.391539 L 49.7367,66.04187 25.99592,49.084173 c -1.79179,-1.355341 -2.00301,-2.560797 0,-3.391539 L 31.64849,43.431608 7.90772,26.473912 C 6.53105,25.433275 6.23225,23.082372 9.03823,21.95186 L 50.86721,3.8636502 c 1.13052,-0.4697903 3.39154,-1.6819615 4.52205,0 L 79.13004,37.779043 c 1.53177,2.261026 0.67435,3.07023 0,3.39154 l -6.41448,2.061177 17.71962,22.81011 c 1.21295,1.727942 1.34265,3.018043 0,3.391538 l -7.9136,2.261026 29.50485,36.443656 c 2.29944,2.82629 0.0384,5.22863 -3.39154,3.39154 z"
     id="path2" /></svg>

<svg xmlns="http://www.w3.org/2000/svg" xmlns:xlink="http://www.w3.org/1999/xlink" xml:space="preserve" width="128" height="128" viewBox="0 0 128 128"><defs><linearGradient id="b" x1="0" x2="118.926" y1="269.463" y2="269.463" gradientTransform="matrix(1 0 0 .98333 -118 -175.033)" gradientUnits="userSpaceOnUse"><stop offset="0" stop-color="#e5a50a" style="stop-color:#082e4f;stop-opacity:1"/><stop offset=".414" stop-color="#fbdf9b" style="stop-color:#167fda;stop-opacity:1"/><stop offset=".813" stop-color="#e5a50a" style="stop-color:#072e4f;stop-opacity:1"/><stop offset="1" stop-color="#f8ca5b" style="stop-color:#0c75ca;stop-opacity:1"/></linearGradient><linearGradient id="a"><stop offset="0" style="stop-color:#4482ca;stop-opacity:1"/><stop offset="1" style="stop-color:#005fa8;stop-opacity:.98431373"/></linearGradient><linearGradient xlink:href="#b" id="c" x1="19" x2="116" y1="67.5" y2="67.5" gradientTransform="translate(-10.538 -6.65)scale(1.1349)" gradientUnits="userSpaceOnUse"/><radialGradient xlink:href="#a" id="d" cx="67.5" cy="63.5" r="48.5" fx="67.5" fy="63.5" gradientTransform="translate(-10.538 -6.11)scale(1.1349)" gradientUnits="userSpaceOnUse"/></defs><circle cx="66.068" cy="69.957" r="55.043" style="fill:url(#c);stroke-width:12.8688;stroke-linecap:round;stroke-linejoin:round"/><path d="m108.585 120.61-10.276-6.055.473-4.331-55.878-28.318c-.853-.5-2.261-2.086 0-3.392l6.833-3.428-23.741-16.958c-1.792-1.355-2.003-2.56 0-3.391l5.652-2.261-23.74-16.958c-.627-.474-1.03-1.22-1.019-1.998.004-.285 0-4.518 0-4.518s1.088 2.421 2.15 1.994l41.828-18.088c1.13-.47 3.392-1.682 4.522 0L79.13 46.823c1.532 2.261.674 3.07 0 3.392l-5.653 2.26 16.958 22.611c1.213 1.728 1.343 3.018 0 3.392l-7.963 2.298 30.44 31.622s.025 6.306 0 7.074c-.048 1.413-1.326 2.5-4.327 1.139" style="fill:#000;fill-opacity:1;stroke-width:12.8189;stroke-linecap:round;stroke-linejoin:round"/><circle cx="66.068" cy="65.957" r="55.043" style="fill:url(#d);fill-opacity:1;stroke-width:12.8688;stroke-linecap:round;stroke-linejoin:round"/><path d="M108.635 116.052 42.954 77.347c-.524-.308-1.258-1.024-1.222-1.834.023-.508 0-4.479 0-4.479l8.005-.47-23.74-16.958c-.946-.714-1.451-1.387-1.424-1.986.024-.536 0-4.513 0-4.513l7.076.847L7.908 30.996c-.635-.48-1.041-1.24-1.018-2.03.012-.42-.001-4.486-.001-4.486l3.391-2.26L50.867 8.385c1.13-.47 3.392-1.682 4.522 0l24.597 31.558v4.475c.003.725-.458 1.084-.856 1.274l-5.652 2.26 17.916 20.352s-.014 3.883 0 4.47c.014.581-.29.994-.959 1.18l-7.913 2.261 29.505 33.053.932 1.139s.008 4.141 0 4.51c-.028 1.28.062 3.808-4.324 1.134z" style="fill:#000;fill-opacity:1;stroke-width:12.8189;stroke-linecap:round;stroke-linejoin:round"/><path d="M108.635 111.53 42.954 72.825c-.853-.5-2.261-2.086 0-3.392l6.783-3.391-23.741-16.958c-1.792-1.355-2.003-2.56 0-3.391l5.652-2.261-23.74-16.958c-1.377-1.04-1.676-3.392 1.13-4.522l41.83-18.088c1.13-.47 3.39-1.682 4.521 0L79.13 37.779c1.532 2.261.674 3.07 0 3.392l-6.414 2.06 17.72 22.81c1.212 1.729 1.342 3.019 0 3.392l-7.914 2.261 29.504 36.444c2.3 2.826.039 5.229-3.391 3.392" style="fill:#fff;fill-opacity:1;stroke-width:12.8189;stroke-linecap:round;stroke-linejoin:round"/></svg>
